X:1
T:Kiawah, LMD
T:Charles Hutchinson Gabriel, 1909
T:Kiawah, LMD
T:Public Domain
C:Charles Hutchinson Gabriel, 1909
Z:Public Domain
%%score ( 1 2 ) 3
L:1/8
M:4/4
K:G
V:1 treble 
V:2 treble 
V:3 bass 
V:1
 [B,D]2 | [DG]3 [DA] [DG]2 D2 | [GB]3 [Gc] [GB]2 [DG]2 | [Gd]2 [Fd]2 [Gd]2 [GB]2 | %4
 [GB]2 [FA]2 [FA]2 D2 | [DG]3 [DA] [DG]2 D2 | [GB]3 [Gc] [GB]2 G2 | [Gd]2 [Fd]2 [Gd]2 [GA]2 | %8
 [GB]2 [FA]2 [DG]2 [=FG]2 | [EG]3 [Ge] [Ge]2 [Ge]2 | [Ge]3 [Gd] [Gd]2 [GB]2 | %11
 [Gd]2 [Fd]2 [Gd]2 [GB]2 | [GB]2 [GA]2 [FA]2 D2 | [DG]3 [DA] [DG]2 D2 | [GB]3 [Gc] [GB]2 G2 | %15
 [Gd]2 [Fd]2 [Gd]2 [GA]2 | [GB]2 [FA]2 [DG]2 |] %17
V:2
 x2 | x6 D2 | x8 | x8 | x6 D2 | x6 D2 | x6 G2 | x8 | x8 | x8 | x8 | x8 | x6 D2 | x6 D2 | x6 G2 | %15
 x8 | x6 |] %17
V:3
 [G,,G,]2 | [G,,B,]3 [G,,C] [G,,B,]2 [G,,B,]2 | [G,D]3 [G,E] [G,D]2 [G,B,]2 | %3
 [G,B,]2 [A,C]2 [B,D]2 [G,D]2 | [D,D]2 [D,D]2 [D,D]2 [D,C]2 | [G,,B,]3 [G,,C] [G,,B,]2 [G,,B,]2 | %6
 [G,D]3 [G,E] [G,D]2 [G,B,]2 | [G,,B,]2 [A,,C]2 [B,,D]2 [C,E]2 | [D,D]2 [D,C]2 [G,,B,]2 [G,B,]2 | %9
 [C,C]3 [C,C] [C,C]2 [C,C]2 | [G,C]3 [G,B,] [G,B,]2 [G,D]2 | [G,B,]2 [A,C]2 [B,D]2 [G,D]2 | %12
 [E,^C]2 [A,C]2 [D,D]2 [D,=C]2 | [G,,B,]3 [G,,C] [G,,B,]2 [G,,B,]2 | [G,D]3 [G,E] [G,D]2 [G,B,]2 | %15
 [G,,B,]2 [A,,C]2 [B,,D]2 [C,E]2 | [D,D]2 [D,C]2 [G,,B,]2 |] %17

